X: 97
T:Go George,I Can't Endure You. JNu.57
M:2/4
L:1/16
Q:100
C:"Hart's 8th Set"
S:James Nuttall MS,c1830,Rossendale,East Lancs.
R:Quadrille
O:England
A:East Lancashire
Z:vmp.Chris Partington
K:D
dd|d2FF F2AA|A2dd d2de|f2ed f2ed|c2a2z2A2|!
A^GAB cBcd|edef gfed|cded cBAG|G4F2||!
FG|A2A2A2B2|B2-A2z2FG|A2A2A2B2|B2A2z2A2|!
d2c2d2e2|f2e2d2c2|B4efed|cdBc A2cd|!
e2e2e2f2|f2e2 a2cd|e2e2e2f2|f2e2z2e2|!
a2^g2a2b2|c'2b2a2^g2|f2b2 agfe|a^gab"DC" a=gfe|]
